crypto/nuls.svg

<svg fill="none" height="32" viewBox="0 0 32 32" width="32" xmlns="http://www.w3.org/2000/svg"><path d="m16 32c8.8366 0 16-7.1634 16-16 0-8.83656-7.1634-16-16-16-8.83656 0-16 7.16344-16 16 0 8.8366 7.16344 16 16 16z" fill="#1c1d21"/><path d="m13.8922 19.9168 2.1077 2.9003v5.9242l-7.70986-3.2725v-15.4272c0-.27665.05449-.5506.16036-.80619s.26105-.48783.45667-.68345c.19562-.19563.42786-.3508.68345-.45667s.52958-.16036.80618-.16036l7.4272 10.22187 3.7792 2.3008v-12.7136l-3.4955-1.48373v8.70083l-2.1077-2.9003v-8.80213l7.7099 3.27253v14.3115c0 .2766-.0545.5506-.1604.8062-.1059.2555-.261.4878-.4567.6834-.1956.1956-.4278.3508-.6834.4567-.2556.1058-.5295.1603-.8062.1603l-5.3675-3.393-5.8389-8.0363v12.736l3.4955 1.4837z" fill="#00e789"/></svg>

<svg width="32" height="32" fill="none" xmlns="http://www.w3.org/2000/svg"><path d="M16 32c8.837 0 16-7.163 16-16S24.837 0 16 0 0 7.163 0 16s7.163 16 16 16Z" fill="#1C1D21"/><path d="m13.892 19.917 2.108 2.9v5.924L8.29 25.47V10.042a2.107 2.107 0 0 1 2.107-2.107l7.427 10.222 3.78 2.3V7.745L18.107 6.26v8.701L16 12.061V3.259l7.71 3.272v14.312a2.106 2.106 0 0 1-2.107 2.106l-5.367-3.393-5.84-8.036v12.736l3.496 1.484v-5.823Z" fill="#00E789"/></svg>
